modules/themify-icons/icons/filter.svg

<?xml version="1.0" encoding="utf-8"?>
<!-- Generated by IcoMoon.io -->
<!DOCTYPE svg PUBLIC "-//W3C//DTD SVG 1.1//EN" "http://www.w3.org/Graphics/SVG/1.1/DTD/svg11.dtd">
<svg version="1.1" xmlns="http://www.w3.org/2000/svg" xmlns:xlink="http://www.w3.org/1999/xlink" width="17" height="17" viewBox="0 0 17 17">
<g>
</g>
	<path d="M0.54 0l6.46 9.229v7.771h3v-7.771l6.46-9.229h-15.92zM9 8.914v7.086h-1v-7.086l-5.54-7.914h12.080l-5.54 7.914z" fill="#000000" />
</svg>

<svg xmlns="http://www.w3.org/2000/svg" width="17" height="17" viewBox="0 0 17 17"><path d="M.54 0L7 9.229V17h3V9.229L16.46 0H.54zM9 8.914V16H8V8.914L2.46 1h12.08L9 8.914z"/></svg>
